packages/sources/icons/src/vitamix/info.svg

<svg width="24" height="24" viewBox="0 0 24 24" fill="none" xmlns="http://www.w3.org/2000/svg">
<path fill-rule="evenodd" clip-rule="evenodd" d="M14.5443 11.25H12.75V9.45569C12.4696 8.99029 12.2593 8.47785 12.1338 7.933C11.3926 7.65314 10.5892 7.5 9.75 7.5C6.02208 7.5 3 10.5221 3 14.25C3 17.9779 6.02208 21 9.75 21C13.4779 21 16.5 17.9779 16.5 14.25C16.5 13.4108 16.3469 12.6074 16.067 11.8662C15.5222 11.7407 15.0097 11.5304 14.5443 11.25ZM12.0177 6.31558C12.2386 3.61932 14.4968 1.5 17.25 1.5C20.1495 1.5 22.5 3.85051 22.5 6.75C22.5 9.50321 20.3807 11.7614 17.6844 11.9823C17.89 12.7028 18 13.4635 18 14.25C18 18.8063 14.3063 22.5 9.75 22.5C5.19365 22.5 1.5 18.8063 1.5 14.25C1.5 9.69365 5.19365 6 9.75 6C10.5365 6 11.2972 6.11005 12.0177 6.31558ZM7.5 14.25C7.08579 14.25 6.75 13.9142 6.75 13.5C6.75 13.0858 7.08579 12.75 7.5 12.75C7.91421 12.75 8.25 13.0858 8.25 13.5C8.25 13.9142 7.91421 14.25 7.5 14.25ZM6.96628 17.0269C6.67527 16.7321 6.67832 16.2573 6.97308 15.9663C7.26785 15.6753 7.74272 15.6783 8.03372 15.9731C8.07167 16.0115 8.19278 16.1031 8.39518 16.2046C8.76071 16.388 9.20959 16.5 9.75 16.5C10.2348 16.5 10.8099 16.2703 11.3994 15.8764C11.618 15.7304 11.8219 15.573 12.0042 15.416C12.1111 15.324 12.1845 15.2551 12.218 15.2214C12.5099 14.9275 12.9848 14.926 13.2786 15.218C13.5725 15.5099 13.574 15.9848 13.282 16.2786C13.0633 16.4987 12.7007 16.811 12.2327 17.1236C11.4191 17.6672 10.5861 18 9.75 18C8.96954 18 8.29163 17.8308 7.72264 17.5454C7.36434 17.3657 7.11343 17.176 6.96628 17.0269ZM12 13.5C11.5858 13.5 11.25 13.1642 11.25 12.75C11.25 12.3358 11.5858 12 12 12C12.4142 12 12.75 12.3358 12.75 12.75C12.75 13.1642 12.4142 13.5 12 13.5ZM17.25 6.75V9.375C17.25 9.58211 17.4179 9.75 17.625 9.75H18.375C18.5821 9.75 18.75 9.58211 18.75 9.375C18.75 9.16789 18.5821 9 18.375 9H18V6.375C18 6.16789 17.8321 6 17.625 6H16.875C16.6679 6 16.5 6.16789 16.5 6.375C16.5 6.58211 16.6679 6.75 16.875 6.75H17.25ZM17.25 5.25C17.6642 5.25 18 4.91421 18 4.5C18 4.08579 17.6642 3.75 17.25 3.75C16.8358 3.75 16.5 4.08579 16.5 4.5C16.5 4.91421 16.8358 5.25 17.25 5.25Z" fill="#001018"/>
</svg>

<svg width="24" height="24" fill="none" xmlns="http://www.w3.org/2000/svg"><path fill-rule="evenodd" clip-rule="evenodd" d="M14.544 11.25H12.75V9.456a5.22 5.22 0 0 1-.616-1.523 6.75 6.75 0 1 0 3.933 3.933 5.22 5.22 0 0 1-1.523-.616zm-2.526-4.934a5.25 5.25 0 1 1 5.666 5.666 8.25 8.25 0 1 1-5.667-5.667zM7.5 14.25a.75.75 0 1 1 0-1.5.75.75 0 0 1 0 1.5zm-.534 2.777a.75.75 0 1 1 1.068-1.054c.038.039.159.13.361.232.366.183.815.295 1.355.295.485 0 1.06-.23 1.65-.624a6.268 6.268 0 0 0 .818-.655.75.75 0 1 1 1.064 1.058 7.05 7.05 0 0 1-1.05.845c-.813.543-1.646.876-2.482.876-.78 0-1.458-.17-2.027-.455a2.924 2.924 0 0 1-.757-.518zM12 13.5a.75.75 0 1 1 0-1.5.75.75 0 0 1 0 1.5zm5.25-6.75v2.625c0 .207.168.375.375.375h.75a.375.375 0 0 0 0-.75H18V6.375A.375.375 0 0 0 17.625 6h-.75a.375.375 0 0 0 0 .75h.375zm0-1.5a.75.75 0 1 0 0-1.5.75.75 0 0 0 0 1.5z" fill="#001018"/></svg>
